X: 30371
M: 2/4
L: 1/8
K: G
V: 1 staves=3
d |\
d2Bg | g2fe | dggb | b2 a/g/f/e/ |\
d2Bg | e2a>g | f>gab | g2z :|
|: g |\
f>ede | fgab | c'bag | fed d |\
d2Bg | e2a>g | f>gab | g2z :|
V: 2
z |\
|: z |\
z[FA,][FA,][FA,] | z[FA,][FA,][FA,] |\
z[FA,][FA,][FA,] | z[FA,][FA,]z |\
V: 3 clef=bass middle=d
z |\
|: z |\
d2z2 | d2z2 | d2z2 | d2z2 |


